public/cloud-icons/azure/networking/internet-analyzer-profile.svg

<?xml version="1.0" encoding="UTF-8" standalone="no"?>
<!-- Generated by Microsoft Visio, SVG Export Internet Analyzer Profile.svg Page-1 -->

<svg
   xmlns:dc="http://purl.org/dc/elements/1.1/"
   xmlns:cc="http://creativecommons.org/ns#"
   xmlns:rdf="http://www.w3.org/1999/02/22-rdf-syntax-ns#"
   xmlns:svg="http://www.w3.org/2000/svg"
   xmlns="http://www.w3.org/2000/svg"
   xmlns:sodipodi="http://sodipodi.sourceforge.net/DTD/sodipodi-0.dtd"
   xmlns:inkscape="http://www.inkscape.org/namespaces/inkscape"
   width="0.78739709in"
   height="0.78739709in"
   viewBox="0 0 56.692498 56.692901"
   xml:space="preserve"
   class="st6"
   version="1.1"
   id="svg73"
   sodipodi:docname="Internet Analyzer Profile.svg"
   style="font-size:12px;overflow:visible;color-interpolation-filters:sRGB;fill:none;fill-rule:evenodd;stroke-linecap:square;stroke-miterlimit:3"
   inkscape:version="0.92.5 (2060ec1f9f, 2020-04-08)"><metadata
   id="metadata77"><rdf:RDF><cc:Work
       rdf:about=""><dc:format>image/svg+xml</dc:format><dc:type
         rdf:resource="http://purl.org/dc/dcmitype/StillImage" /></cc:Work></rdf:RDF></metadata><sodipodi:namedview
   pagecolor="#ffffff"
   bordercolor="#666666"
   borderopacity="1"
   objecttolerance="10"
   gridtolerance="10"
   guidetolerance="10"
   inkscape:pageopacity="0"
   inkscape:pageshadow="2"
   inkscape:window-width="640"
   inkscape:window-height="480"
   id="namedview75"
   showgrid="false"
   inkscape:zoom="1.4193119"
   inkscape:cx="37.795128"
   inkscape:cy="37.78433"
   inkscape:window-x="0"
   inkscape:window-y="0"
   inkscape:window-maximized="0"
   inkscape:current-layer="svg73" />
	<style
   type="text/css"
   id="style2">
	<![CDATA[
		.st1 {fill:none;stroke:none;stroke-linecap:butt;stroke-width:34}
		.st2 {fill:url(#grad0-10);stroke:none;stroke-linecap:butt;stroke-width:34}
		.st3 {fill:#ffffff;stroke:none;stroke-linecap:butt;stroke-width:34}
		.st4 {fill:#50e6ff;stroke:none;stroke-linecap:butt;stroke-width:34}
		.st5 {fill:#86d633;stroke:none;stroke-linecap:butt;stroke-width:34}
		.st6 {fill:none;fill-rule:evenodd;font-size:12px;overflow:visible;stroke-linecap:square;stroke-miterlimit:3}
	]]>
	</style>

	<defs
   id="Patterns_And_Gradients">
		<linearGradient
   id="grad0-10"
   x1="0"
   y1="103.13327"
   x2="44.981871"
   y2="103.13327"
   gradientTransform="scale(1.1875895,0.84204176)"
   gradientUnits="userSpaceOnUse">
			<stop
   offset="0"
   stop-color="#0078d4"
   stop-opacity="1"
   id="stop4" />
			<stop
   offset="0.105"
   stop-color="#1480da"
   stop-opacity="1"
   id="stop6" />
			<stop
   offset="0.305"
   stop-color="#348ee3"
   stop-opacity="1"
   id="stop8" />
			<stop
   offset="0.5"
   stop-color="#4b98ea"
   stop-opacity="1"
   id="stop10" />
			<stop
   offset="0.68"
   stop-color="#599eee"
   stop-opacity="1"
   id="stop12" />
			<stop
   offset="0.84"
   stop-color="#5ea0ef"
   stop-opacity="1"
   id="stop14" />
		</linearGradient>
	</defs>
	<g
   id="g71"
   transform="translate(-34.000441,-34.000001)">
		<title
   id="title18">Page-1</title>
		<g
   id="group19170-1"
   transform="translate(34,-34.0157)">
			<title
   id="title20">Internet Analyzer Profile.19170</title>
			<g
   id="group19171-2">
				<title
   id="title22">Icon-469-Internet-Analyzer</title>
				<g
   id="shape19172-3">
					<title
   id="title24">Sheet.19172</title>
					<rect
   x="0"
   y="68.015701"
   width="56.692902"
   height="56.692902"
   class="st1"
   id="rect26"
   style="fill:none;stroke:none;stroke-width:34;stroke-linecap:butt" />
				</g>
				<g
   id="shape19173-5">
					<title
   id="title29">Sheet.19173</title>
					<rect
   x="0"
   y="68.015701"
   width="56.692902"
   height="56.692902"
   class="st1"
   id="rect31"
   style="fill:none;stroke:none;stroke-width:34;stroke-linecap:butt" />
				</g>
				<g
   id="shape19174-7"
   transform="translate(0.664567,-16.611)">
					<title
   id="title34">Sheet.19174</title>
					<path
   d="M 53.42,112.85 A 12.0031,12.0031 -180 0 0 43.01,101.32 15.1181,15.1181 -180 0 0 27.43,86.85 15.515,15.515 -180 0 0 12.6,96.96 14.3213,14.3213 -180 0 0 0,110.74 14.5354,14.5354 -180 0 0 15.04,124.71 c 0.45,0 0.89,-0.02 1.33,-0.06 h 24.35 a 2.42205,2.42205 -180 0 0 0.63,-0.1 12.1417,12.1417 -180 0 0 12.07,-11.7 z"
   class="st2"
   id="path36"
   inkscape:connector-curvature="0"
   style="fill:url(#grad0-10);stroke:none;stroke-width:34;stroke-linecap:butt" />
				</g>
				<g
   id="shape19175-11"
   transform="translate(24.5134,-32.4504)">
					<title
   id="title39">Sheet.19175</title>
					<circle
   cx="4.1511798"
   cy="120.557"
   class="st3"
   id="ellipse41"
   r="4.1511798"
   style="fill:#ffffff;stroke:none;stroke-width:34;stroke-linecap:butt" />
				</g>
				<g
   id="shape19176-13"
   transform="translate(36.6488,-29.1024)">
					<title
   id="title44">Sheet.19176</title>
					<ellipse
   cx="3.3291299"
   cy="121.364"
   rx="3.3291299"
   ry="3.3448801"
   class="st3"
   id="ellipse46"
   style="fill:#ffffff;stroke:none;stroke-width:34;stroke-linecap:butt" />
				</g>
				<g
   id="shape19177-15"
   transform="translate(30.4913,-42.9827)">
					<title
   id="title49">Sheet.19177</title>
					<circle
   cx="2.32441"
   cy="122.384"
   class="st3"
   id="ellipse51"
   r="2.32441"
   style="fill:#ffffff;stroke:none;stroke-width:34;stroke-linecap:butt" />
				</g>
				<g
   id="shape19178-17"
   transform="translate(26.148,-2.20472)">
					<title
   id="title54">Sheet.19178</title>
					<path
   d="M 28.79,124.71 H 1.39 c -0.88,0 -1.39,-1.4 -0.9,-2.11 l 9.45,-13.77 a 1.10551,1.10551 -180 0 0 0.2,-0.63 V 99.11 A 0.544882,0.544882 -180 0 0 9.591969,98.568268 L 9.08,98.57 A 1.08346,1.08346 0 0 1 8,97.48 V 96.99 A 1.08346,1.08346 0 0 1 9.08,95.91 H 21.1 a 1.08346,1.08346 0 0 1 1.08,1.08 v 0.49 a 1.08346,1.08346 0 0 1 -1.08,1.09 h -0.51 a 0.541732,0.541732 -180 0 0 -0.541732,0.541732 L 20.05,108.23 a 1.06772,1.06772 -180 0 0 0.19,0.63 l 9.45,13.74 c 0.49,0.7 -0.03,2.11 -0.9,2.11 z"
   class="st4"
   id="path56"
   inkscape:connector-curvature="0"
   style="fill:#50e6ff;stroke:none;stroke-width:34;stroke-linecap:butt" />
				</g>
				<g
   id="shape19179-19"
   transform="translate(30.6621,-4.91654)">
					<title
   id="title59">Sheet.19179</title>
					<path
   d="m 0.03,123.73 7.18,-10.46 a 2.60472,2.60472 -180 0 0 0.46,-1.48 v -4.21 a 0.834646,0.834646 0 0 1 0.834646,-0.83465 L 12.57,106.74 a 0.834646,0.834646 0 0 1 0.834646,0.83465 L 13.4,112.08 a 1.74173,1.74173 -180 0 0 0.32,0.99 l 7.32,10.66 a 0.629921,0.629921 0 0 1 -0.513386,0.97953 L 0.55,124.71 a 0.629921,0.629921 0 0 1 -0.513386,-0.97953 z"
   class="st3"
   id="path61"
   inkscape:connector-curvature="0"
   style="fill:#ffffff;stroke:none;stroke-width:34;stroke-linecap:butt" />
				</g>
				<g
   id="shape19180-21"
   transform="translate(31.789,-5.8363)">
					<title
   id="title64">Sheet.19180</title>
					<path
   d="m 5.85,121.2 1.45,3.38 a 0.207874,0.207874 -180 0 0 0.390551,-0.0157 L 9.22,120.04 a 0.207874,0.207874 0 0 1 0.384252,-0.0315 L 10.84,122.38 a 0.211024,0.211024 -180 0 0 0.365354,0 L 12.87,119.58 a 0.207874,0.207874 0 0 1 0.182677,-0.10394 L 16.38,119.47 15.7,118.49 a 0.207874,0.207874 -180 0 0 -0.173228,-0.0913 L 12.44,118.4 a 0.211024,0.211024 -180 0 0 -0.182677,0.10079 L 11.27,120.18 a 0.207874,0.207874 0 0 1 -0.365354,0 L 9.39,117.3 a 0.207874,0.207874 -180 0 0 -0.384252,0.0315 L 7.58,121.57 a 0.207874,0.207874 0 0 1 -0.390551,0.0158 L 5.97,118.76 a 0.207874,0.207874 -180 0 0 -0.374803,0 L 3.87,121.91 a 0.211024,0.211024 0 0 1 -0.185827,0.10709 L 0.85,122.01 a 0.214173,0.214173 -180 0 0 -0.173228,0.0913 L 0,123.08 h 4.31 a 0.211024,0.211024 -180 0 0 0.185827,-0.10709 L 5.47,121.2 a 0.207874,0.207874 0 0 1 0.374803,0.006 z"
   class="st5"
   id="path66"
   inkscape:connector-curvature="0"
   style="fill:#86d633;stroke:none;stroke-width:34;stroke-linecap:butt" />
				</g>
			</g>
		</g>
	</g>
</svg>

<svg xmlns="http://www.w3.org/2000/svg" xml:space="preserve" width="75.59" height="75.59" style="font-size:12px;overflow:visible;color-interpolation-filters:sRGB;fill-rule:evenodd;stroke-linecap:square;stroke-miterlimit:3" viewBox="0 0 56.692 56.693"><defs><linearGradient id="a" x1="0" x2="44.982" y1="103.133" y2="103.133" gradientTransform="scale(1.18759 .84204)" gradientUnits="userSpaceOnUse"><stop offset="0" stop-color="#0078d4"/><stop offset=".105" stop-color="#1480da"/><stop offset=".305" stop-color="#348ee3"/><stop offset=".5" stop-color="#4b98ea"/><stop offset=".68" stop-color="#599eee"/><stop offset=".84" stop-color="#5ea0ef"/></linearGradient></defs><g transform="translate(-34 -34)"><title>Page-1</title><g transform="translate(34 -34.016)"><title>Internet Analyzer Profile.19170</title><title>Icon-469-Internet-Analyzer</title><title>Sheet.19172</title><path d="M0 68.016h56.693v56.693H0z" style="fill:none;stroke:none;stroke-width:34;stroke-linecap:butt"/><title>Sheet.19173</title><path d="M0 68.016h56.693v56.693H0z" style="fill:none;stroke:none;stroke-width:34;stroke-linecap:butt"/><g transform="translate(.665 -16.611)"><title>Sheet.19174</title><path d="M53.42 112.85a12 12-180 0 0-10.41-11.53 15.12 15.12-180 0 0-15.58-14.47A15.515 15.515-180 0 0 12.6 96.96 14.32 14.32-180 0 0 0 110.74a14.535 14.535-180 0 0 15.04 13.97c.45 0 .89-.02 1.33-.06h24.35a2.4 2.4-180 0 0 .63-.1 12.14 12.14-180 0 0 12.07-11.7" style="fill:url(#a);stroke:none;stroke-width:34;stroke-linecap:butt"/></g><g transform="translate(24.513 -32.45)"><title>Sheet.19175</title><circle cx="4.151" cy="120.557" r="4.151" style="fill:#fff;stroke:none;stroke-width:34;stroke-linecap:butt"/></g><g transform="translate(36.649 -29.102)"><title>Sheet.19176</title><ellipse cx="3.329" cy="121.364" rx="3.329" ry="3.345" style="fill:#fff;stroke:none;stroke-width:34;stroke-linecap:butt"/></g><g transform="translate(30.491 -42.983)"><title>Sheet.19177</title><circle cx="2.324" cy="122.384" r="2.324" style="fill:#fff;stroke:none;stroke-width:34;stroke-linecap:butt"/></g><g transform="translate(26.148 -2.205)"><title>Sheet.19178</title><path d="M28.79 124.71H1.39c-.88 0-1.39-1.4-.9-2.11l9.45-13.77a1.1 1.1-180 0 0 .2-.63v-9.09a.545.545-180 0 0-.548-.542l-.512.002A1.083 1.083 0 0 1 8 97.48v-.49a1.083 1.083 0 0 1 1.08-1.08H21.1a1.083 1.083 0 0 1 1.08 1.08v.49a1.083 1.083 0 0 1-1.08 1.09h-.51a.54.54-180 0 0-.542.542l.002 9.118a1.07 1.07-180 0 0 .19.63l9.45 13.74c.49.7-.03 2.11-.9 2.11" style="fill:#50e6ff;stroke:none;stroke-width:34;stroke-linecap:butt"/></g><g transform="translate(30.662 -4.917)"><title>Sheet.19179</title><path d="m.03 123.73 7.18-10.46a2.6 2.6-180 0 0 .46-1.48v-4.21a.835.835 0 0 1 .835-.835l4.065-.005a.835.835 0 0 1 .835.835l-.005 4.505a1.74 1.74-180 0 0 .32.99l7.32 10.66a.63.63 0 0 1-.513.98H.55a.63.63 0 0 1-.513-.98z" style="fill:#fff;stroke:none;stroke-width:34;stroke-linecap:butt"/></g><g transform="translate(31.789 -5.836)"><title>Sheet.19180</title><path d="m5.85 121.2 1.45 3.38a.208.208-180 0 0 .39-.016l1.53-4.524a.208.208 0 0 1 .384-.031l1.236 2.371a.211.211-180 0 0 .365 0l1.665-2.8a.21.21 0 0 1 .183-.104l3.327-.006-.68-.98a.21.21-180 0 0-.173-.091l-3.087.001a.21.21-180 0 0-.183.1l-.987 1.68a.208.208 0 0 1-.365 0L9.39 117.3a.208.208-180 0 0-.384.032L7.58 121.57a.208.208 0 0 1-.39.016l-1.22-2.826a.208.208-180 0 0-.375 0l-1.725 3.15a.21.21 0 0 1-.186.107L.85 122.01a.21.21-180 0 0-.173.091L0 123.08h4.31a.21.21-180 0 0 .186-.107l.974-1.773a.208.208 0 0 1 .375.006z" style="fill:#86d633;stroke:none;stroke-width:34;stroke-linecap:butt"/></g></g></g></svg>
